X:172
T:Boys of Barr na Sr\'aide, The
R:song
C:Sigerson Clifford
Z:id:hn-song-172
M:3/4
L:1/8
Q:1/4=160
K:C
EG | A4 A2 | A4 GE | G4 ED | C4 D2 | E G3 E2 | D4 D2 | D6- | D4
G2 | G4 E2 | G3 A c2 | d2 d4 | d4 ed | c4 A2 | G4 A2 | c6- | c4
G2 | G4 E2 | G3 A c2 | d2 d4 | d4 ed | c4 A2 | G4 A2 | c6- | c4
Bc | A4 A2 | A4 GE | G4 ED | C4 D2 | E G3 E2 | D4 D2 | D6- | D4 ||
W:Oh, the town, it climbs the mountains and looks upon the sea
W:At sleeping time or waking time, it's there I'd like to be.
W:To walk again those kindly streets, the place where life began,
W:With the Boys of Barr na Sr\'aide who hunted for the wren.
W:
W:With cudgels stout they roamed about to hunt for the dre\'ol\'in
W:We searched for birds in every furze from Litir to Dooneen.
W:We danced for joy beneath the sky, life held no print nor plan
W:When the Boys of Barr na Sr\'aide went hunting for the wren.
W:
W:And when the hills were bleedin' and the rifles were aflame
W:To the rebel homes of Kerry the Saxon strangers came,
W:But the men who dared the Auxies and fought the Black-and-Tan
W:Were the Boys of Barr na Sr\'aide who hunted for the wren.
W:
W:But now they toil in foreign soil where they have made their way
W:Deep in the heart of London or over on Broadway,
W:And I am left to sing their deeds and praise them while I can
W:Those Boys of Barr na Sr\'aide who hunted for the wren.
W:
W:And here's a health to them tonight wherever they may be.
W:By the groves of Carham river or the slope of Bean 'a T\'i
W:John Daly and Batt Andy and the Sheehans, Con and Dan,
W:And the Boys of Barr na Sr\'aide who hunted for the wren.
W:
W:When the wheel of life runs out and peace come over me
W:Just take me back to that old town between the hills and sea.
W:I'll take my rest in those green fields, the place where life began,
W:With those Boys of Barr na Sr\'aide who hunted for the wren.

